assets/icons/action/new_task.svg

<?xml version="1.0"?><svg xmlns="http://www.w3.org/2000/svg" width="52" height="52" viewBox="0 0 52 52"><path fill="#fff" d="m24 7l-1.7-1.7c-0.5-0.5-1.2-0.5-1.7 0l-10.6 10.5-4.3-4.2c-0.5-0.5-1.2-0.5-1.7 0l-1.7 1.7c-0.5 0.5-0.5 1.2 0 1.7l5.9 5.9c0.5 0.5 1.1 0.7 1.7 0.7 0.6 0 1.2-0.2 1.7-0.7l12.4-12.2c0.4-0.4 0.4-1.2 0-1.7z m24.4 11.4h-20.9c-0.9 0-1.6-0.7-1.6-1.6v-3.2c0-0.9 0.7-1.6 1.6-1.6h20.9c0.9 0 1.6 0.7 1.6 1.6v3.2c0 0.9-0.7 1.6-1.6 1.6z m0 14.3h-25.7c-0.9 0-1.6-0.7-1.6-1.6v-3.2c0-0.9 0.7-1.6 1.6-1.6h25.7c0.9 0 1.6 0.7 1.6 1.6v3.2c0 0.9-0.7 1.6-1.6 1.6z m-35.4 0h-3.2c-0.9 0-1.6-0.7-1.6-1.6v-3.2c0-0.9 0.7-1.6 1.6-1.6h3.2c0.9 0 1.6 0.7 1.6 1.6v3.2c0.1 0.9-0.7 1.6-1.6 1.6z m0 14.3h-3.2c-0.9 0-1.6-0.7-1.6-1.6v-3.2c0-0.9 0.7-1.6 1.6-1.6h3.2c0.9 0 1.6 0.7 1.6 1.6v3.2c0.1 0.9-0.7 1.6-1.6 1.6z m35.4 0h-25.7c-0.9 0-1.6-0.7-1.6-1.6v-3.2c0-0.9 0.7-1.6 1.6-1.6h25.7c0.9 0 1.6 0.7 1.6 1.6v3.2c0 0.9-0.7 1.6-1.6 1.6z"></path></svg>

<svg xmlns="http://www.w3.org/2000/svg" x="0px" y="0px"
	 width="52px" height="52px" viewBox="0 0 52 52" enable-background="new 0 0 52 52" xml:space="preserve">
<g>
	<g>
		<path fill="#FFFFFF" d="M24,7l-1.7-1.7c-0.5-0.5-1.2-0.5-1.7,0L10,15.8l-4.3-4.2c-0.5-0.5-1.2-0.5-1.7,0l-1.7,1.7
			c-0.5,0.5-0.5,1.2,0,1.7l5.9,5.9c0.5,0.5,1.1,0.7,1.7,0.7c0.6,0,1.2-0.2,1.7-0.7L24,8.7C24.4,8.3,24.4,7.5,24,7z"/>
	</g>
</g>
<g>
	<path fill="#FFFFFF" d="M48.4,18.4H27.5c-0.9,0-1.6-0.7-1.6-1.6v-3.2c0-0.9,0.7-1.6,1.6-1.6h20.9c0.9,0,1.6,0.7,1.6,1.6v3.2
		C50,17.7,49.3,18.4,48.4,18.4z"/>
</g>
<g>
	<path fill="#FFFFFF" d="M48.4,32.7H22.7c-0.9,0-1.6-0.7-1.6-1.6v-3.2c0-0.9,0.7-1.6,1.6-1.6h25.7c0.9,0,1.6,0.7,1.6,1.6v3.2
		C50,32,49.3,32.7,48.4,32.7z"/>
</g>
<g>
	<path fill="#FFFFFF" d="M13,32.7H9.8c-0.9,0-1.6-0.7-1.6-1.6v-3.2c0-0.9,0.7-1.6,1.6-1.6H13c0.9,0,1.6,0.7,1.6,1.6v3.2
		C14.7,32,13.9,32.7,13,32.7z"/>
</g>
<g>
	<path fill="#FFFFFF" d="M13,47H9.8c-0.9,0-1.6-0.7-1.6-1.6v-3.2c0-0.9,0.7-1.6,1.6-1.6H13c0.9,0,1.6,0.7,1.6,1.6v3.2
		C14.7,46.3,13.9,47,13,47z"/>
</g>
<g>
	<path fill="#FFFFFF" d="M48.4,47H22.7c-0.9,0-1.6-0.7-1.6-1.6v-3.2c0-0.9,0.7-1.6,1.6-1.6h25.7c0.9,0,1.6,0.7,1.6,1.6v3.2
		C50,46.3,49.3,47,48.4,47z"/>
</g>
</svg>
